lib/radiotmp/nrk-sleep.svg

<svg width="24" height="24" viewBox="0 0 24 24" fill="none" xmlns="http://www.w3.org/2000/svg">
<path d="M3.72485 18.9627V17.7027L9.52985 10.0677H3.88985V8.31274H12.4699V9.57274L6.63485 17.2077H12.6349L12.2299 18.9627H3.72485Z" fill="black"/>
<path d="M13.5622 12.6814L13.3405 11.4394L17.4953 6.56005H13.4292L13.6362 5.03711H19.8314L20.0384 6.39741L16.0463 11.1437H20.275L20.0532 12.6814H13.5622Z" fill="black"/>
</svg>

<svg xmlns="http://www.w3.org/2000/svg" viewBox="0 0 24 24"><path fill="#000" d="M3.725 18.963v-1.26l5.805-7.635H3.89V8.313h8.58v1.26l-5.835 7.635h6l-.405 1.755H3.725ZM13.562 12.681l-.221-1.242 4.154-4.879H13.43l.207-1.523h6.195l.207 1.36-3.992 4.747h4.229l-.222 1.537h-6.49Z"/></svg>
